public/formular-icons/greece/lower-mu.svg

<svg style="vertical-align:-.489ex" xmlns="http://www.w3.org/2000/svg" width="1.364ex" height="1.489ex" viewBox="0 -442 603 658" xmlns:xlink="http://www.w3.org/1999/xlink"><defs><path id="a" d="M58-216q-14 0-24 8t-11 22q0 10 73 302t77 298q13 28 46 28 12-1 20-7t10-12 2-10q0-12-31-134t-33-137q-2-11-2-35v-8q0-73 67-73 9 0 18 1t17 4 15 7 13 7 12 10 11 10 10 12 8 11 9 12l7 10 36 143q36 142 40 151 13 27 43 27 13 0 21-7t11-12 2-10L449 84q-1-5-1-16 0-25 7-33t21-9q9 1 20 9 21 20 41 96 6 20 10 21 2 1 10 1h4q19 0 19-9 0-6-5-27t-20-54-32-50Q510 0 491-8q-8-2-24-2-21 0-38 6t-27 15-17 18-9 15-2 7l-6-6q-6-6-18-15t-26-18-36-16-42-7q-47 0-93 23l-24-97q-21-82-25-95t-12-22q-16-14-34-14Z"/></defs><g stroke="currentColor" fill="currentColor" stroke-width="0"><use data-c="1D707" xlink:href="#a" transform="scale(1 -1)"/></g></svg>

<svg style="vertical-align: -0.489ex" xmlns="http://www.w3.org/2000/svg" width="1.364ex" height="1.489ex" role="img" focusable="false" viewBox="0 -442 603 658" xmlns:xlink="http://www.w3.org/1999/xlink"><defs><path id="MJX-108-TEX-I-1D707" d="M58 -216Q44 -216 34 -208T23 -186Q23 -176 96 116T173 414Q186 442 219 442Q231 441 239 435T249 423T251 413Q251 401 220 279T187 142Q185 131 185 107V99Q185 26 252 26Q261 26 270 27T287 31T302 38T315 45T327 55T338 65T348 77T356 88T365 100L372 110L408 253Q444 395 448 404Q461 431 491 431Q504 431 512 424T523 412T525 402L449 84Q448 79 448 68Q448 43 455 35T476 26Q485 27 496 35Q517 55 537 131Q543 151 547 152Q549 153 557 153H561Q580 153 580 144Q580 138 575 117T555 63T523 13Q510 0 491 -8Q483 -10 467 -10Q446 -10 429 -4T402 11T385 29T376 44T374 51L368 45Q362 39 350 30T324 12T288 -4T246 -11Q199 -11 153 12L129 -85Q108 -167 104 -180T92 -202Q76 -216 58 -216Z"></path></defs><g stroke="currentColor" fill="currentColor" stroke-width="0" transform="scale(1,-1)"><g data-mml-node="math"><g data-mml-node="mi"><use data-c="1D707" xlink:href="#MJX-108-TEX-I-1D707"></use></g></g></g></svg>
